static/assets/img/icons/theme/home/home-heart.svg

<svg height="24" viewBox="0 0 24 24" width="24" xmlns="http://www.w3.org/2000/svg"><g fill="none" fill-rule="evenodd"><path d="m0 0h24v24h-24z" opacity="0"/><g fill="#000"><path d="m3.95709826 8.41510662 7.52145174-4.59644273c.3201124-.19562422.7227876-.19562422 1.0429 0l7.52145 4.59644168c.5945094.36331127.9571 1.00983097.9571 1.70656363v8.878395c0 1.1045695-.8954305 2-2 2l-14.00001845.0000031c-1.1045695 0-2-.8954305-2-2 0-.000001 0-.0000021 0-.0000031l.00001673-8.878397c.00000107-.69673159.36259156-1.34324988.95709998-1.70656058z" opacity=".3"/><path d="m13.8 12c-.6438 0-1.3967.7298529-1.8 1.2-.4033-.4701471-1.1562-1.2-1.8-1.2-1.1396 0-1.8.8888719-1.8 2.0201635 0 1.2532243 1.2 2.5798365 3.6 3.9798365 2.4-1.4 3.6-2.7 3.6-3.9 0-1.1312916-.6604-2.1-1.8-2.1z" opacity=".3"/></g></g></svg>

<svg width="24px" height="24px" viewBox="0 0 24 24" version="1.1" xmlns="http://www.w3.org/2000/svg" xmlns:xlink="http://www.w3.org/1999/xlink">
    <title>Icon For Home-heart</title>
    <g stroke="none" stroke-width="1" fill="none" fill-rule="evenodd">
        <rect opacity="0" x="0" y="0" width="24" height="24"></rect>
        <path d="M3.95709826,8.41510662 L11.47855,3.81866389 C11.7986624,3.62303967 12.2013376,3.62303967 12.52145,3.81866389 L20.0429,8.41510557 C20.6374094,8.77841684 21,9.42493654 21,10.1216692 L21,19.0000642 C21,20.1046337 20.1045695,21.0000642 19,21.0000642 L4.99998155,21.0000673 C3.89541205,21.0000673 2.99998155,20.1046368 2.99998155,19.0000673 C2.99998155,19.0000663 2.99998155,19.0000652 2.99998155,19.0000642 L2.99999828,10.1216672 C2.99999935,9.42493561 3.36258984,8.77841732 3.95709826,8.41510662 Z" fill="#000000" opacity="0.3"></path>
        <path d="M13.8,12 C13.1562,12 12.4033,12.7298529 12,13.2 C11.5967,12.7298529 10.8438,12 10.2,12 C9.0604,12 8.4,12.8888719 8.4,14.0201635 C8.4,15.2733878 9.6,16.6 12,18 C14.4,16.6 15.6,15.3 15.6,14.1 C15.6,12.9687084 14.9396,12 13.8,12 Z" fill="#000000" opacity="0.3"></path>
    </g>
</svg>
